assets/images/Expo/Features/flag.svg

<svg width="56" height="56" viewBox="0 0 56 56" fill="none" xmlns="http://www.w3.org/2000/svg">
<circle cx="28" cy="28" r="28" fill="white"/>
<path fill-rule="evenodd" clip-rule="evenodd" d="M18.219 40.2206C18.3621 40.3638 18.5563 40.4442 18.7588 40.4442C18.9612 40.4442 19.1554 40.3638 19.2986 40.2206C19.4417 40.0775 19.5221 39.8833 19.5221 39.6808V16.779C19.5221 16.5766 19.4417 16.3824 19.2986 16.2392C19.1554 16.0961 18.9612 16.0156 18.7588 16.0156C18.5563 16.0156 18.3621 16.0961 18.219 16.2392C18.0758 16.3824 17.9954 16.5766 17.9954 16.779V39.6808C17.9954 39.8833 18.0758 40.0775 18.219 40.2206ZM37.1184 17.3029C37.2524 17.3029 37.384 17.3382 37.5001 17.4052C37.6073 17.4758 37.6949 17.5722 37.755 17.6856C37.815 17.7991 37.8455 17.9258 37.8436 18.0541V29.4516C37.8432 29.5925 37.8037 29.7306 37.7296 29.8506C37.6555 29.9705 37.5496 30.0675 37.4237 30.131C35.7379 30.8583 33.9156 31.215 32.08 31.1768C30.4808 31.083 28.9196 30.6511 27.4996 29.9096C26.5056 29.3759 25.416 29.0438 24.2934 28.9325C23.1596 28.9291 22.0435 29.2127 21.0489 29.7569V28.0698C22.0735 27.6387 23.1742 27.4181 24.2857 27.4209C25.6205 27.5241 26.9198 27.9009 28.1027 28.5279C29.3278 29.1768 30.6744 29.5641 32.0571 29.6653C33.5077 29.681 34.9497 29.4406 36.3168 28.9554V19.161C34.9439 19.581 33.5157 19.792 32.08 19.787C30.4808 19.6932 28.9196 19.2613 27.4996 18.5198C26.5056 17.9861 25.416 17.654 24.2934 17.5426C23.1596 17.5393 22.0435 17.8229 21.0489 18.3671V16.6647C22.0756 16.2441 23.1763 16.0338 24.2857 16.0464C25.6205 16.1496 26.9198 16.5263 28.1027 17.1533C29.3278 17.8022 30.6744 18.1896 32.0571 18.2908C33.662 18.3291 35.2568 18.0273 36.7367 17.4052C36.8527 17.3382 36.9844 17.3029 37.1184 17.3029Z" fill="#010107"/>
</svg>

<svg xmlns="http://www.w3.org/2000/svg" width="56" height="56" fill="none" viewBox="0 0 56 56"><circle cx="28" cy="28" r="28" fill="#fff"/><path fill="#010107" fill-rule="evenodd" d="M18.219 40.22a.763.763 0 0 0 1.303-.54v-22.9a.764.764 0 0 0-1.527 0v22.902c0 .202.08.397.224.54zm18.9-22.917c.133 0 .265.035.381.102a.764.764 0 0 1 .344.65v11.397a.764.764 0 0 1-.42.679 12.816 12.816 0 0 1-5.344 1.046c-1.6-.094-3.16-.526-4.58-1.267a8.564 8.564 0 0 0-3.207-.977 6.717 6.717 0 0 0-3.244.824V28.07a8.292 8.292 0 0 1 3.237-.65 9.756 9.756 0 0 1 3.817 1.108 10.01 10.01 0 0 0 3.954 1.137c1.45.016 2.893-.224 4.26-.71v-9.794c-1.373.42-2.801.631-4.237.626-1.6-.094-3.16-.526-4.58-1.267a8.566 8.566 0 0 0-3.207-.977 6.718 6.718 0 0 0-3.244.824v-1.702a8.29 8.29 0 0 1 3.237-.619 9.756 9.756 0 0 1 3.817 1.107 10.01 10.01 0 0 0 3.954 1.138c1.605.038 3.2-.264 4.68-.886a.763.763 0 0 1 .381-.102z" clip-rule="evenodd"/></svg>
